X:1
T:Stetit angelus
T:José de Torres y Martinez Bravo [1665-1738] Edited by Mick Swithinbank and Jonathan Goodliffe
T:Adapted from the Bible, Revelation 8, 3-4
T:Stetit angelus
T:Copyright © 
T:Copyright © 
C:José de Torres y Martinez Bravo [1665-1738]
C:Edited by Mick Swithinbank and Jonathan Goodliffe
Z:Adapted from the
Z:Bible, Revelation 8, 3-4
Z:Copyright ©
%%score 1 2
L:1/8
M:4/4
K:F
V:1 treble nm="Solo [Tiple]" snm="S."
V:2 bass nm="Bajo" snm="B."
V:1
 z2 G4 ^F2 | GABc A3 A | D2 G3 G^FG | AG/A/ BA/G/ AG/A/ B/A/G/F/ | E4 D2 d2- | d2 ^c2 defg | %6
w: Ste- tit|an- * * * * ge-|lus iux- ta a- ram|te- * * * * * * * * * * * *|* mpli, ste-|* tit an- * * *|
 e3 e d4 | z2 G4 ^F2 | GABc A3 A | G4 z2 c2- | c2 =B2 cd_ef | d3 d G2 c2- | ccBc dc/d/ _ed/c/ | %13
w: * ge- lus,|ste- tit|an- * * * * ge-|lus, ste-|* tit an- * * *|* ge- lus iux-|* ta a- ram te- * * * * *|
 dc/d/ _e/d/c/B/ A4 | G4 z GGG | _E2 DC G/F/G/A/ G/A/G/F/ | E4 z ccc | A2 GF c/B/c/d/ c/d/c/B/ | %18
w: * * * * * * * mp-|li, ha- bens thu-|ri- bu- lum a- * * * * * u- re-|um, ha- bens thu-|ri- bu- lum a- * * * * * * *|
 A/B/A/G/ F/G/A/B/ c3 B | A4 z fff | d2 cB f/e/f/g/ f/g/f/e/ | d/e/d/c/ B/c/d/e/ f3 _e | %22
w: * * * * * * * * u- re-|um, ha- bens thu-|ri- bu- lum a- * * * * * * *|* * * * * * * * u- re-|
 d2 z f Bcd_e | f2 _ed c4 | B2 z d GABc | d2 cB A4 |[M:3/4] G4 z2 | z6 | z4 d2 | _e2 c2 e2 | %30
w: um in ma- * * *|* * nu su-|a, in ma- * * *|* nu _ su-|a.||Et|da- ta sunt|
 d2 B2 d2 | f_e dc BA | GF GA Bc | d2 _e4 | d6 | c6- | c6 | z6 | z2 C2 D2 | E2 F2 G2 | A2 F2 B2- | %41
w: e- i in-|cen- * * * * *||* sa|mul-|ta,|||et as-|cen- * *|* dit fu-|
 BB A2 B2 | c2 F4 | z6 | z2 F2 G2 | A2 B2 c2 | d2 B2 _e2- | e_e d2 e2 | f2 B4 | z4 cB | cd _ed cB | %51
w: * mus a- ro-|ma- tum,||et as-|cen- * *|* dit fu-|* mus a- ro-|ma- tum,|in _|_ _ cons- * * *|
 _AG FG AG | AB c4- | c2 B2 B2- | B2 A4 | B6 | z2 FE FG | A2 F4 | z4 AG | AB cB AG | ^F3 E F2- | %61
w: pe- * * * * *||* ctum de-||i,|in _ cons- *|pec- tum.|in _|cons- * * * * *|pec- * *|
 FG A4- | A2 G2 G2- |[M:3/4] G2 ^F4 | G6 |] %65
w: |* ctum de-||i.|
V:2
 z8 | z2 G,4 ^F,2 | G,A,B,C A,2 D,E, | ^F,2 G,2 F,2 G,2 | A,4 D,E,F,G, | A,4 z2 D,2- | %6
 D,2 ^C,2 D,E,F,G, | E,3 E, D,4 | z2 G,4 ^F,2 | G,A,B,C A,3 A, | G,4 z2 C,2- | %11
 C,2 =B,,2 C,D,_E,F, | D,2 G,,A,, =B,,2 C,2 | =B,,2 C,2 D,4 | G,,G,G,G, _E,2 =B,,2 | %15
 C,2 B,,A,, G,,4 | C,CCC A,2 E,2 | F,2 E,D, C,>B,, A,,>G,, | F,,2 F,4 E,2 | z F,F,F, D,2 A,,2 | %20
 B,,B,A,G, F,>E, D,>C, | B,,2 B,4 A,2 | B,2 _A,2 G,2 F,_E, | D,2 C,B,, F,3 F, | %24
 B,,C,D,B,, _E,2 D,C, | B,,2 A,,G,, D,4 |[M:3/4] G,4 D,2 | _E,2 C,2 E,2 | D,2 B,,2 D,2 | %29
 C,2 A,,2 C,2 | B,,2 G,,2 B,,2 | D,2 B,,2 D,2 | _E,3 E, D,C, | =B,,2 C,D, _E,F, | G,2 G,,4 | %35
 z2 C,2 D,2 | E,2 F,2 G,2 | A,2 F,2 B,2- | B,B, A,2 B,2 | C2 F,4 | z6 | z2 F,,2 G,,2 | %42
 A,,2 B,,2 C,2 | D,2 B,,2 _E,2- | E,_E, D,2 E,2 | F,2 B,,4 | z6 | z2 B,,2 C,2 | D,2 _E,2 F,2 | %49
 G,2 _E,2 _A,2- | A,_A, G,2 G,2 | F,4 F,2- | F,F, _E,2 E,2 | D,2 C,2 B,,2 | F,6 | %55
 B,,2 B,,A,, B,,C, | D,6 | A,,2 A,G, A,B, | CB, A,G, ^F,2- | F,^F, _E,2 E,2 | D,4 D,2- | %61
 D,D, C,2 C,2 | =B,,2 A,,2 _G,,2 |[M:3/4] D,6 | G,,6 |] %65

